X:26
T: Koennt ich von Herzen singen
N: L0087
O: Europa, Mitteleuropa, Deutschland
N: Hamburg 1598 No. 77
R: Lied
M: 6/4
L: 1/4
K: A
A2 | A2A=G2E | =G2A2
=c2 | =c2ec2A | G2A2
A2 | A2A=G2E | =G2A2
=c2 | =c2ec2A | G2A2
=c2 | =c2Bc2A | BA=G2z2 |
=c2 | =c2Bc2d | e2=cA=G2 |
c2 | =c2ec2A | G2A2

@@@ Tune index: 5430
